X: 17854
T: Horizonto
R: jig
M: 6/8
K: Dminor
|:aba gaf|gef dec|A2d def|ede cde|
f2f fgf|ede cde|fed edc|1 A=B^c d2g:|2 A=B^c d3||
B2B def|B2B def|A2A def|A2A def|
B2B def|B2B def|aba gaf|gef dec|
B2B def|B2B def|A2A def|A2A def|
B2B def|B2B def|=B2=B def|gfg aga||
b2 a2 gf|e3 efg|a2 g2 fe|d3 def|
g2 f2 ed|^c3 ^cde|d3 ede|f3 a3|
b2 a2 gf|e3 efg|a2 g2 fe|d3 def|
g2 f2 ed|^c3 ^cde|d2f ed^c|A=B^c d3||

